apps/www/public/images/product/auth/auth-v2.svg

<svg width="115" height="115" viewBox="0 0 115 115" fill="none" xmlns="http://www.w3.org/2000/svg">
<g clip-path="url(#clip0_4051_91749)">
<rect x="0.5" y="0.728516" width="113.52" height="113.52" rx="22.19" fill="url(#paint0_linear_4051_91749)"/>
<g filter="url(#filter0_f_4051_91749)">
<circle cx="15.457" cy="74.8481" r="26.2539" fill="#265643"/>
</g>
<g filter="url(#filter1_f_4051_91749)">
<circle cx="21.2196" cy="25.1786" r="51.6141" fill="#00F0FF" fill-opacity="0.2"/>
</g>
<path d="M85.8595 63.5889V46.6703C85.8595 39.9231 80.3898 34.4534 73.6425 34.4534V30.9465C73.6425 22.6623 66.9268 15.9465 58.6425 15.9465H57.5859V11.8755H93.2882C104.174 11.8755 112.999 20.7003 112.999 31.5863V63.5889V64.8338V91.4396H87.2932L85.8595 63.5889Z" fill="url(#paint1_radial_4051_91749)"/>
<g filter="url(#filter2_f_4051_91749)">
<circle cx="113.403" cy="49.4205" r="39.2426" fill="url(#paint2_linear_4051_91749)"/>
</g>
<g filter="url(#filter3_f_4051_91749)">
<circle cx="21.7852" cy="94.2693" r="26.2539" fill="#3DCB8C" fill-opacity="0.2"/>
</g>
<g filter="url(#filter4_f_4051_91749)">
<path fill-rule="evenodd" clip-rule="evenodd" d="M43.1694 31.5834C43.1694 24.2767 49.0927 18.3535 56.3993 18.3535C63.706 18.3535 69.6292 24.2767 69.6292 31.5834V37.8133H72.2768C77.7996 37.8133 82.2768 42.2905 82.2768 47.8133V79.8479C82.2768 85.3707 77.7996 89.8479 72.2768 89.8479H40.2422C34.7193 89.8479 30.2422 85.3708 30.2422 79.8479L30.2422 47.8133C30.2422 42.2905 34.7193 37.8133 40.2422 37.8133H43.1694V31.5834ZM49.1694 37.8133L63.6292 37.8133V31.5834C63.6292 27.5905 60.3923 24.3535 56.3993 24.3535C52.4064 24.3535 49.1694 27.5905 49.1694 31.5834V37.8133ZM40.2422 43.8133C38.0331 43.8133 36.2422 45.6042 36.2422 47.8133V53.0283H58.9268C60.5837 53.0283 61.9268 54.3715 61.9268 56.0283V76.4881C61.9268 78.145 60.5837 79.4881 58.9268 79.4881H36.2422V79.8479C36.2422 82.057 38.0331 83.8479 40.2422 83.8479H72.2768C74.4859 83.8479 76.2768 82.057 76.2768 79.8479V47.8133C76.2768 45.6042 74.4859 43.8133 72.2768 43.8133L40.2422 43.8133ZM36.3521 73.4881H55.9268V69.2582H36.3521V73.4881ZM36.3521 63.2582H55.9268V59.0283H36.3521V63.2582Z" fill="url(#paint3_linear_4051_91749)"/>
</g>
<path d="M43.1694 38.0633C43.3075 38.0633 43.4194 37.9514 43.4194 37.8133V31.5834C43.4194 24.4148 49.2307 18.6035 56.3993 18.6035C63.5679 18.6035 69.3792 24.4148 69.3792 31.5834V37.8133C69.3792 37.9514 69.4912 38.0633 69.6292 38.0633H72.2768C77.6615 38.0633 82.0268 42.4285 82.0268 47.8133V79.8479C82.0268 85.2327 77.6615 89.5979 72.2768 89.5979H40.2422C34.8574 89.5979 30.4922 85.2327 30.4922 79.8479L30.4922 47.8133C30.4922 42.4286 34.8574 38.0633 40.2422 38.0633H43.1694ZM48.9194 37.8133C48.9194 37.9514 49.0314 38.0633 49.1694 38.0633L63.6292 38.0633C63.6955 38.0633 63.7591 38.037 63.806 37.9901C63.8529 37.9432 63.8792 37.8796 63.8792 37.8133V31.5834C63.8792 27.4524 60.5304 24.1035 56.3993 24.1035C52.2683 24.1035 48.9194 27.4524 48.9194 31.5834V37.8133ZM35.9922 53.0283C35.9922 53.1664 36.1041 53.2783 36.2422 53.2783H58.9268C60.4456 53.2783 61.6768 54.5095 61.6768 56.0283V76.4881C61.6768 78.0069 60.4456 79.2381 58.9268 79.2381H36.2422C36.1041 79.2381 35.9922 79.3501 35.9922 79.4881V79.8479C35.9922 82.1951 37.895 84.0979 40.2422 84.0979H72.2768C74.624 84.0979 76.5268 82.1951 76.5268 79.8479V47.8133C76.5268 45.4661 74.624 43.5633 72.2768 43.5633L40.2422 43.5633C37.895 43.5633 35.9922 45.4661 35.9922 47.8133V53.0283ZM36.1021 73.4881C36.1021 73.6262 36.214 73.7381 36.3521 73.7381H55.9268C56.0649 73.7381 56.1768 73.6262 56.1768 73.4881V69.2582C56.1768 69.1201 56.0649 69.0082 55.9268 69.0082H36.3521C36.214 69.0082 36.1021 69.1201 36.1021 69.2582V73.4881ZM36.1021 63.2582C36.1021 63.3963 36.214 63.5082 36.3521 63.5082H55.9268C56.0649 63.5082 56.1768 63.3963 56.1768 63.2582V59.0283C56.1768 58.8902 56.0649 58.7783 55.9268 58.7783H36.3521C36.214 58.7783 36.1021 58.8902 36.1021 59.0283V63.2582Z" fill="url(#paint4_linear_4051_91749)" stroke="url(#paint5_linear_4051_91749)" stroke-width="0.5" stroke-miterlimit="10" stroke-linejoin="round"/>
<path d="M25.9608 78.9561V72.8481H4.40234V108.328H45.7203V93.9561H40.9608C32.6766 93.9561 25.9608 87.2403 25.9608 78.9561Z" fill="url(#paint6_radial_4051_91749)"/>
</g>
<rect x="1.43215" y="1.66067" width="111.655" height="111.655" rx="21.2579" stroke="url(#paint7_linear_4051_91749)" stroke-opacity="0.2" stroke-width="1.8643"/>
<defs>
<filter id="filter0_f_4051_91749" x="-39.1768" y="20.2144" width="109.268" height="109.268" filterUnits="userSpaceOnUse" color-interpolation-filters="sRGB">
<feFlood flood-opacity="0" result="BackgroundImageFix"/>
<feBlend mode="normal" in="SourceGraphic" in2="BackgroundImageFix" result="shape"/>
<feGaussianBlur stdDeviation="14.1899" result="effect1_foregroundBlur_4051_91749"/>
</filter>
<filter id="filter1_f_4051_91749" x="-58.7744" y="-54.8154" width="159.988" height="159.988" filterUnits="userSpaceOnUse" color-interpolation-filters="sRGB">
<feFlood flood-opacity="0" result="BackgroundImageFix"/>
<feBlend mode="normal" in="SourceGraphic" in2="BackgroundImageFix" result="shape"/>
<feGaussianBlur stdDeviation="14.1899" result="effect1_foregroundBlur_4051_91749"/>
</filter>
<filter id="filter2_f_4051_91749" x="45.1602" y="-18.822" width="136.484" height="136.485" filterUnits="userSpaceOnUse" color-interpolation-filters="sRGB">
<feFlood flood-opacity="0" result="BackgroundImageFix"/>
<feBlend mode="normal" in="SourceGraphic" in2="BackgroundImageFix" result="shape"/>
<feGaussianBlur stdDeviation="14.5" result="effect1_foregroundBlur_4051_91749"/>
</filter>
<filter id="filter3_f_4051_91749" x="-32.8486" y="39.6355" width="109.268" height="109.268" filterUnits="userSpaceOnUse" color-interpolation-filters="sRGB">
<feFlood flood-opacity="0" result="BackgroundImageFix"/>
<feBlend mode="normal" in="SourceGraphic" in2="BackgroundImageFix" result="shape"/>
<feGaussianBlur stdDeviation="14.1899" result="effect1_foregroundBlur_4051_91749"/>
</filter>
<filter id="filter4_f_4051_91749" x="26.2422" y="14.3535" width="60.0352" height="79.4944" filterUnits="userSpaceOnUse" color-interpolation-filters="sRGB">
<feFlood flood-opacity="0" result="BackgroundImageFix"/>
<feBlend mode="normal" in="SourceGraphic" in2="BackgroundImageFix" result="shape"/>
<feGaussianBlur stdDeviation="2" result="effect1_foregroundBlur_4051_91749"/>
</filter>
<linearGradient id="paint0_linear_4051_91749" x1="57.2598" y1="0.728516" x2="57.2598" y2="114.248" gradientUnits="userSpaceOnUse">
<stop/>
<stop offset="1" stop-color="#151515"/>
</linearGradient>
<radialGradient id="paint1_radial_4051_91749" cx="0" cy="0" r="1" gradientUnits="userSpaceOnUse" gradientTransform="translate(78.0931 42.1244) rotate(-40.0024) scale(30.7518 40.2856)">
<stop stop-color="#099289"/>
<stop offset="1" stop-color="#010809" stop-opacity="0"/>
</radialGradient>
<linearGradient id="paint2_linear_4051_91749" x1="117.074" y1="47.1085" x2="136.605" y2="49.4189" gradientUnits="userSpaceOnUse">
<stop stop-color="#075B61" stop-opacity="0.65"/>
<stop offset="1" stop-color="#040404" stop-opacity="0"/>
</linearGradient>
<linearGradient id="paint3_linear_4051_91749" x1="56.2595" y1="18.3535" x2="56.2595" y2="89.8479" gradientUnits="userSpaceOnUse">
<stop stop-color="#4CC38A"/>
<stop offset="1" stop-color="#65ECF4"/>
</linearGradient>
<linearGradient id="paint4_linear_4051_91749" x1="56.2595" y1="18.3535" x2="56.2595" y2="89.8479" gradientUnits="userSpaceOnUse">
<stop stop-color="#65ECF4"/>
<stop offset="0.729167" stop-color="#0DFF8B"/>
</linearGradient>
<linearGradient id="paint5_linear_4051_91749" x1="74.7216" y1="37.4036" x2="46.0602" y2="83.3927" gradientUnits="userSpaceOnUse">
<stop stop-color="#BEFFE0"/>
<stop offset="1" stop-color="#4CC38A" stop-opacity="0"/>
</linearGradient>
<radialGradient id="paint6_radial_4051_91749" cx="0" cy="0" r="1" gradientUnits="userSpaceOnUse" gradientTransform="translate(32.1277 84.8043) rotate(-133.452) scale(14.2663 23.8519)">
<stop stop-color="#398969" stop-opacity="0.88"/>
<stop offset="1" stop-color="#224639" stop-opacity="0"/>
</radialGradient>
<linearGradient id="paint7_linear_4051_91749" x1="57.2598" y1="0.728516" x2="57.2598" y2="114.248" gradientUnits="userSpaceOnUse">
<stop stop-color="#59FCB3"/>
<stop offset="1"/>
</linearGradient>
<clipPath id="clip0_4051_91749">
<rect x="0.5" y="0.728516" width="113.52" height="113.52" rx="22.19" fill="white"/>
</clipPath>
</defs>
</svg>

<svg xmlns="http://www.w3.org/2000/svg" width="115" height="115" fill="none" viewBox="0 0 115 115"><g clip-path="url(#a)"><rect width="113.52" height="113.52" x=".5" y=".729" fill="url(#b)" rx="22.19"/><g filter="url(#c)"><circle cx="15.457" cy="74.848" r="26.254" fill="#265643"/></g><g filter="url(#d)"><circle cx="21.22" cy="25.179" r="51.614" fill="#00f0ff" fill-opacity=".2"/></g><path fill="url(#e)" d="M85.86 63.589V46.67c0-6.747-5.47-12.217-12.218-12.217v-3.507c0-8.284-6.715-15-15-15h-1.056v-4.07h35.702c10.886 0 19.711 8.824 19.711 19.71V91.44H87.293z"/><g filter="url(#f)"><circle cx="113.403" cy="49.42" r="39.243" fill="url(#g)"/></g><g filter="url(#h)"><circle cx="21.785" cy="94.269" r="26.254" fill="#3dcb8c" fill-opacity=".2"/></g><g filter="url(#i)"><path fill="url(#j)" fill-rule="evenodd" d="M43.17 31.583c0-7.306 5.923-13.23 13.23-13.23 7.306 0 13.23 5.924 13.23 13.23v6.23h2.647c5.523 0 10 4.477 10 10v32.035c0 5.523-4.477 10-10 10H40.242c-5.523 0-10-4.477-10-10V47.813c0-5.523 4.477-10 10-10h2.927zm6 6.23h14.46v-6.23a7.23 7.23 0 0 0-14.46 0zm-8.928 6a4 4 0 0 0-4 4v5.215h22.685a3 3 0 0 1 3 3v20.46a3 3 0 0 1-3 3H36.242v.36a4 4 0 0 0 4 4h32.035a4 4 0 0 0 4-4V47.813a4 4 0 0 0-4-4zm-3.89 29.675h19.575v-4.23H36.352zm0-10.23h19.575v-4.23H36.352z" clip-rule="evenodd"/></g><path fill="url(#k)" stroke="url(#l)" stroke-linejoin="round" stroke-miterlimit="10" stroke-width=".5" d="M43.17 38.063a.25.25 0 0 0 .25-.25v-6.23c0-7.168 5.81-12.98 12.98-12.98 7.168 0 12.98 5.812 12.98 12.98v6.23c0 .138.111.25.25.25h2.647c5.385 0 9.75 4.365 9.75 9.75v32.035c0 5.385-4.365 9.75-9.75 9.75H40.242c-5.385 0-9.75-4.365-9.75-9.75V47.813c0-5.384 4.365-9.75 9.75-9.75zm5.75-.25c0 .138.111.25.25.25h14.46a.25.25 0 0 0 .25-.25v-6.23a7.48 7.48 0 1 0-14.96 0zM35.991 53.028c0 .138.112.25.25.25h22.685a2.75 2.75 0 0 1 2.75 2.75v20.46a2.75 2.75 0 0 1-2.75 2.75H36.242a.25.25 0 0 0-.25.25v.36a4.25 4.25 0 0 0 4.25 4.25h32.035a4.25 4.25 0 0 0 4.25-4.25V47.813a4.25 4.25 0 0 0-4.25-4.25H40.242a4.25 4.25 0 0 0-4.25 4.25zm.11 20.46c0 .138.112.25.25.25h19.575a.25.25 0 0 0 .25-.25v-4.23a.25.25 0 0 0-.25-.25H36.352a.25.25 0 0 0-.25.25zm0-10.23c0 .138.112.25.25.25h19.575a.25.25 0 0 0 .25-.25v-4.23a.25.25 0 0 0-.25-.25H36.352a.25.25 0 0 0-.25.25z"/><path fill="url(#m)" d="M25.96 78.956v-6.108H4.403v35.48H45.72V93.956h-4.76c-8.283 0-15-6.716-15-15"/></g><rect width="111.655" height="111.655" x="1.432" y="1.661" stroke="url(#n)" stroke-opacity=".2" stroke-width="1.864" rx="21.258"/><defs><linearGradient id="b" x1="57.26" x2="57.26" y1=".729" y2="114.248" gradientUnits="userSpaceOnUse"><stop/><stop offset="1" stop-color="#151515"/></linearGradient><linearGradient id="g" x1="117.074" x2="136.605" y1="47.108" y2="49.419" gradientUnits="userSpaceOnUse"><stop stop-color="#075b61" stop-opacity=".65"/><stop offset="1" stop-color="#040404" stop-opacity="0"/></linearGradient><linearGradient id="j" x1="56.26" x2="56.26" y1="18.354" y2="89.848" gradientUnits="userSpaceOnUse"><stop stop-color="#4cc38a"/><stop offset="1" stop-color="#65ecf4"/></linearGradient><linearGradient id="k" x1="56.26" x2="56.26" y1="18.354" y2="89.848" gradientUnits="userSpaceOnUse"><stop stop-color="#65ecf4"/><stop offset=".729" stop-color="#0dff8b"/></linearGradient><linearGradient id="l" x1="74.722" x2="46.06" y1="37.404" y2="83.393" gradientUnits="userSpaceOnUse"><stop stop-color="#beffe0"/><stop offset="1" stop-color="#4cc38a" stop-opacity="0"/></linearGradient><linearGradient id="n" x1="57.26" x2="57.26" y1=".729" y2="114.248" gradientUnits="userSpaceOnUse"><stop stop-color="#59fcb3"/><stop offset="1"/></linearGradient><filter id="c" width="109.268" height="109.268" x="-39.177" y="20.214" color-interpolation-filters="sRGB" filterUnits="userSpaceOnUse"><feFlood flood-opacity="0" result="BackgroundImageFix"/><feBlend in="SourceGraphic" in2="BackgroundImageFix" result="shape"/><feGaussianBlur result="effect1_foregroundBlur_4051_91749" stdDeviation="14.19"/></filter><filter id="d" width="159.988" height="159.988" x="-58.774" y="-54.815" color-interpolation-filters="sRGB" filterUnits="userSpaceOnUse"><feFlood flood-opacity="0" result="BackgroundImageFix"/><feBlend in="SourceGraphic" in2="BackgroundImageFix" result="shape"/><feGaussianBlur result="effect1_foregroundBlur_4051_91749" stdDeviation="14.19"/></filter><filter id="f" width="136.484" height="136.485" x="45.16" y="-18.822" color-interpolation-filters="sRGB" filterUnits="userSpaceOnUse"><feFlood flood-opacity="0" result="BackgroundImageFix"/><feBlend in="SourceGraphic" in2="BackgroundImageFix" result="shape"/><feGaussianBlur result="effect1_foregroundBlur_4051_91749" stdDeviation="14.5"/></filter><filter id="h" width="109.268" height="109.268" x="-32.849" y="39.636" color-interpolation-filters="sRGB" filterUnits="userSpaceOnUse"><feFlood flood-opacity="0" result="BackgroundImageFix"/><feBlend in="SourceGraphic" in2="BackgroundImageFix" result="shape"/><feGaussianBlur result="effect1_foregroundBlur_4051_91749" stdDeviation="14.19"/></filter><filter id="i" width="60.035" height="79.494" x="26.242" y="14.354" color-interpolation-filters="sRGB" filterUnits="userSpaceOnUse"><feFlood flood-opacity="0" result="BackgroundImageFix"/><feBlend in="SourceGraphic" in2="BackgroundImageFix" result="shape"/><feGaussianBlur result="effect1_foregroundBlur_4051_91749" stdDeviation="2"/></filter><radialGradient id="e" cx="0" cy="0" r="1" gradientTransform="rotate(-40.002 96.91 -86.21)scale(30.7518 40.2856)" gradientUnits="userSpaceOnUse"><stop stop-color="#099289"/><stop offset="1" stop-color="#010809" stop-opacity="0"/></radialGradient><radialGradient id="m" cx="0" cy="0" r="1" gradientTransform="rotate(226.548 34.302 35.493)scale(14.2663 23.8519)" gradientUnits="userSpaceOnUse"><stop stop-color="#398969" stop-opacity=".88"/><stop offset="1" stop-color="#224639" stop-opacity="0"/></radialGradient><clipPath id="a"><rect width="113.52" height="113.52" x=".5" y=".729" fill="#fff" rx="22.19"/></clipPath></defs></svg>
